X:1
T:Polska efter J.C. Blomgren 
T:(SvL Skne nr. 468)
R:Polska
Z:Patrik Mnsson, 3/10 2008
O:Hsslunda, Skne
S:efter Johan Christian Blomgren
B:Svenska Ltar
N:Finns ven i Omtyckta Sknska Allspelsltar
M:3/4
L:1/16
K:Am
|: A2B2 c2dc B2G2 | c2cd e2f2 e2d2 | cdef g2fg agfe | defd e4 E4 :|
|: e2fe d2cd e4 | c2Bc dcBA ^G2E2 | A^GAB cBcd e2c2 | B2A^G A4 A,4 :|
